_src/static/img/sprite/man-user.svg

<svg width="15" height="15" viewBox="0 0 15 15" fill="none" xmlns="http://www.w3.org/2000/svg">
<path d="M7.5004 7.33599C9.16814 7.33599 10.5202 5.69379 10.5202 3.66801C10.5202 1.6422 10.0763 0 7.5004 0C4.92447 0 4.48047 1.6422 4.48047 3.66801C4.48047 5.69379 5.83257 7.33599 7.5004 7.33599Z" fill="#B397F2"/>
<path d="M13.2031 13.0329C13.2047 12.9991 13.2037 12.7983 13.2031 13.0329V13.0329Z" fill="#B397F2"/>
<path d="M13.1961 12.7881C13.1402 9.2592 12.6793 8.25364 9.15242 7.61713C9.15242 7.61713 8.65596 8.24974 7.49882 8.24974C6.34168 8.24974 5.84514 7.61713 5.84514 7.61713C2.35678 8.2467 1.86786 9.23734 1.80358 12.6735C1.79831 12.9541 1.79586 12.9688 1.79492 12.9363C1.79514 12.9973 1.79539 13.1102 1.79539 13.307C1.79539 13.307 2.63505 14.9997 7.49882 14.9997C12.3625 14.9997 13.2023 13.307 13.2023 13.307C13.2023 13.1805 13.2023 13.0926 13.2025 13.0328C13.2015 13.0529 13.1996 13.0139 13.1961 12.7881Z" fill="#B397F2"/>
</svg>

<svg width="15" height="15" fill="none" xmlns="http://www.w3.org/2000/svg"><path d="M7.5 7.336c1.668 0 3.02-1.642 3.02-3.668C10.52 1.642 10.076 0 7.5 0S4.48 1.642 4.48 3.668c0 2.026 1.353 3.668 3.02 3.668zm5.703 5.697c.002-.034 0-.235 0 0zm-.007-.245c-.056-3.529-.517-4.534-4.044-5.17 0 0-.496.632-1.653.632s-1.654-.633-1.654-.633c-3.488.63-3.977 1.62-4.041 5.057-.006.28-.008.295-.01.262l.001.371S2.635 15 7.5 15s5.703-1.693 5.703-1.693v-.274a2.2 2.2 0 01-.006-.245z" fill="#B397F2"/></svg>
